static/assets/template/assets/img/icons/essential/detailed/Folder_2.svg

<svg height="103" viewBox="0 0 150 103" width="150" xmlns="http://www.w3.org/2000/svg"><g fill="none" fill-rule="evenodd" transform="translate(2 1)"><path d="m124.5 82.8h-106.3c-4.2 0-7.5-3.4-7.5-7.5v-67.1c0-4.2 3.4-7.5 7.5-7.5h106.2c4.2 0 7.5 3.4 7.5 7.5v67.1c.1 4.1-3.3 7.5-7.4 7.5z" fill-rule="nonzero"/><path d="m124.8 82.8h-102.8c-3.9 0-7.1-3.2-7.1-7.1v-62.4c0-3.9 3.2-7.1 7.1-7.1h102.8c3.9 0 7.1 3.2 7.1 7.1v62.4c.1 3.9-3.1 7.1-7.1 7.1z" fill-rule="nonzero"/><g stroke-linecap="round" stroke-linejoin="round" stroke-width="3"><path d="m10.7 25.7v-17.5c0-4.2 3.4-7.5 7.5-7.5h27.3"/><path d="m132 43.1v32.1c0 4.2-3.4 7.5-7.5 7.5h-106.3c-4.2 0-7.5-3.4-7.5-7.5v-34.9"/><path d="m63.5.6h60.9c4.2 0 7.5 3.4 7.5 7.5v26.1"/><path d="m53.6.6h.3"/></g><path d="m137 16.3h-43.5c-4.2 0-8.3 1.5-11.6 4.1l-11.4 9.3c-3.3 2.7-7.4 4.1-11.6 4.1h-49.5c-5.5 0-9.8 4.9-8.9 10.4l9 48.3c.7 4.5 4.6 7.9 9.1 7.9h105.5c4.5 0 8.4-3.3 9.1-7.7l12.7-65.9c.9-5.5-3.3-10.5-8.9-10.5z" fill-rule="nonzero"/><path d="m140.1 60.4 5.8-29.1c.9-5.2-3.3-9.9-8.7-9.9h-42.4c-4.1 0-8.1 1.4-11.3 3.9l-11.1 8.8c-3.2 2.5-7.2 3.9-11.3 3.9h-48.3c-5.4 0-9.5 4.6-8.7 9.7l8.8 45.3c.7 4.2 4.4 7.4 8.9 7.4h102.9c4.4 0 8.2-3.1 8.9-7.3z" fill-rule="nonzero"/><path d="m135.1 82.8.3-1.4" stroke-linecap="round" stroke-linejoin="round" stroke-width="3"/><path d="m139.4 60.5 6.5-33.8c.9-5.5-3.3-10.5-8.9-10.5h-43.5c-4.2 0-8.3 1.5-11.6 4.1l-11.4 9.3c-3.3 2.7-7.4 4.1-11.6 4.1h-49.5c-5.5 0-9.8 4.9-8.9 10.4l9 48.3c.7 4.5 4.6 7.9 9.1 7.9h105.5c4.5 0 8.4-3.3 9.1-7.7l.5-2.7" stroke-linecap="round" stroke-linejoin="round" stroke-width="3"/></g></svg>

<?xml version="1.0" encoding="UTF-8"?>
<svg width="150px" height="103px" viewBox="0 0 150 103" version="1.1" xmlns="http://www.w3.org/2000/svg" xmlns:xlink="http://www.w3.org/1999/xlink">
    <!-- Generator: Sketch 51.2 (57519) - http://www.bohemiancoding.com/sketch -->
    <title>Folder_2</title>
    <desc>Created with Sketch.</desc>
    <defs></defs>
    <g id="Page-1" stroke="none" stroke-width="1" fill="none" fill-rule="evenodd">
        <g id="Folder_2" transform="translate(2.000000, 1.000000)">
            <path d="M124.5,82.8 L18.2,82.8 C14,82.8 10.7,79.4 10.7,75.3 L10.7,8.2 C10.7,4 14.1,0.7 18.2,0.7 L124.4,0.7 C128.6,0.7 131.9,4.1 131.9,8.2 L131.9,75.3 C132,79.4 128.6,82.8 124.5,82.8 Z" id="Shape" class="fill-neutral" fill-rule="nonzero"></path>
            <path d="M124.8,82.8 L22,82.8 C18.1,82.8 14.9,79.6 14.9,75.7 L14.9,13.3 C14.9,9.4 18.1,6.2 22,6.2 L124.8,6.2 C128.7,6.2 131.9,9.4 131.9,13.3 L131.9,75.7 C132,79.6 128.8,82.8 124.8,82.8 Z" id="Shape" class="fill-primary-500" fill-rule="nonzero"></path>
            <path d="M10.7,25.7 L10.7,8.2 C10.7,4 14.1,0.7 18.2,0.7 L45.5,0.7" id="Shape" class="stroke-primary" stroke-width="3" stroke-linecap="round" stroke-linejoin="round"></path>
            <path d="M132,43.1 L132,75.2 C132,79.4 128.6,82.7 124.5,82.7 L18.2,82.7 C14,82.7 10.7,79.3 10.7,75.2 L10.7,40.3" id="Shape" class="stroke-primary" stroke-width="3" stroke-linecap="round" stroke-linejoin="round"></path>
            <path d="M63.5,0.6 L124.4,0.6 C128.6,0.6 131.9,4 131.9,8.1 L131.9,34.2" id="Shape" class="stroke-primary" stroke-width="3" stroke-linecap="round" stroke-linejoin="round"></path>
            <path d="M53.6,0.6 L53.9,0.6" id="Shape" class="stroke-primary" stroke-width="3" stroke-linecap="round" stroke-linejoin="round"></path>
            <path d="M137,16.3 L93.5,16.3 C89.3,16.3 85.2,17.8 81.9,20.4 L70.5,29.7 C67.2,32.4 63.1,33.8 58.9,33.8 L9.4,33.8 C3.9,33.8 -0.4,38.7 0.5,44.2 L9.5,92.5 C10.2,97 14.1,100.4 18.6,100.4 L124.1,100.4 C128.6,100.4 132.5,97.1 133.2,92.7 L145.9,26.8 C146.8,21.3 142.6,16.3 137,16.3 Z" id="Shape" class="fill-neutral" fill-rule="nonzero"></path>
            <path d="M140.1,60.4 L145.9,31.3 C146.8,26.1 142.6,21.4 137.2,21.4 L94.8,21.4 C90.7,21.4 86.7,22.8 83.5,25.3 L72.4,34.1 C69.2,36.6 65.2,38 61.1,38 L12.8,38 C7.4,38 3.3,42.6 4.1,47.7 L12.9,93 C13.6,97.2 17.3,100.4 21.8,100.4 L124.7,100.4 C129.1,100.4 132.9,97.3 133.6,93.1 L140.1,60.4" id="Shape" class="fill-primary-200" fill-rule="nonzero"></path>
            <path d="M135.1,82.8 L135.4,81.4" id="Shape" class="stroke-primary" stroke-width="3" stroke-linecap="round" stroke-linejoin="round"></path>
            <path d="M139.4,60.5 L145.9,26.7 C146.8,21.2 142.6,16.2 137,16.2 L93.5,16.2 C89.3,16.2 85.2,17.7 81.9,20.3 L70.5,29.6 C67.2,32.3 63.1,33.7 58.9,33.7 L9.4,33.7 C3.9,33.7 -0.4,38.6 0.5,44.1 L9.5,92.4 C10.2,96.9 14.1,100.3 18.6,100.3 L124.1,100.3 C128.6,100.3 132.5,97 133.2,92.6 L133.7,89.9" id="Shape" class="stroke-primary" stroke-width="3" stroke-linecap="round" stroke-linejoin="round"></path>
        </g>
    </g>
</svg>
